X: 20375
T: John Creeney's
R: polka
M: 2/4
K: Eminor
|:E2 DE|G3 A|Bd A G|FD DF|
E2 DE|G3 A|Bd A F|GE ED:|
|:E2 DE|G3 A|B2 AB|d2 gf|e2 dB|
A2 GA|1 BA GE|D2 B,D:|2 GE DB,|EF GF||

